svgs/light/lightbulb-exclamation.svg

<svg xmlns="http://www.w3.org/2000/svg" viewBox="0 0 384 512"><!--! Font Awesome Pro 6.3.0 by @fontawesome - https://fontawesome.com License - https://fontawesome.com/license (Commercial License) Copyright 2023 Fonticons, Inc. --><path d="M208 224V112C208 103.2 200.8 96 192 96S176 103.2 176 112V224c0 8.844 7.135 16 15.98 16S208 232.8 208 224zM168 288c0 13.25 10.75 24 24 24c13.26 0 24-10.75 24-24S205.3 264 192 264C178.7 264 168 274.7 168 288zM315.8 51.3c-33.33-33.22-78.19-52.47-124.3-51.28C94.73 .2939 16 79.89 16 177.4c0 42.91 15.47 84.34 43.55 116.6c13.33 15.31 35.84 49.59 43.73 76.02c1.078 8.688 8.844 14.62 17.64 13.71c8.703-.9687 14.98-8.965 14.11-17.65l-.6094-3.312c-10.31-34.97-36-72.84-50.73-89.77C60.67 246.5 48 212.6 48 177.4c0-81.24 63.05-145.1 143.5-145.3H192c38.13 0 74.05 14.88 101.2 41.94C320.8 101.5 336 138.2 336 177.4c0 35.19-12.67 69.15-35.67 95.62c-14.75 16.94-40.44 54.8-50.75 89.77l-.625 3.344c-1.047 8.75 4.938 17.59 13.67 18.68c.7813 .0938 1.531 .1562 2.281 .1562c7.797 0 14.36-5.121 15.36-13.12c8.344-28.25 30.86-62.53 44.2-77.84C352.5 261.7 368 220.3 368 177.4C368 129.7 349.5 84.89 315.8 51.3zM255.9 415.1H128.1c-8.846 0-15.98 7.18-15.97 16.03l-.0145 22.34c.0098 6.27 1.88 12.46 5.355 17.68l17.08 25.69C139.8 505.6 151.8 512 161.2 512h61.67c9.418 0 21.39-6.43 26.61-14.27l17.02-25.69c2.953-4.441 5.411-12.36 5.419-17.69l-.1144-22.34C271.8 423.2 264.7 415.1 255.9 415.1zM239.9 454.4l-16.11 24.45C223.3 479.3 222.1 479.1 222.9 480l-60.29 .1172c-.4238-.1016-1.138-.2773-1.423-.2773c-.1406 0-.1348-.2266 0 0l-17.1-25.48l-.0098-6.367h95.94l.0039 5.18C239.9 453.6 239.7 454.4 239.9 454.4C239.9 454.4 239.8 454.5 239.9 454.4z"/></svg>

<svg xmlns="http://www.w3.org/2000/svg" viewBox="0 0 384 512"><!-- Font Awesome Pro 6.0.0-alpha2 by @fontawesome - https://fontawesome.com License - https://fontawesome.com/license (Commercial License) --><path d="M208 224V112C208 103.156 200.844 96 192 96S176 103.156 176 112V224C176 232.844 183.156 240 192 240S208 232.844 208 224ZM168 288C168 301.254 178.746 312 192 312C205.256 312 216 301.254 216 288S205.256 264 192 264C178.746 264 168 274.746 168 288ZM315.781 51.297C282.453 18.078 237.563 -1.137 191.438 0.051C94.703 0.332 16 79.887 16 177.375C16 220.281 31.469 261.711 59.547 293.992C72.875 309.301 95.391 343.578 103.281 370.016C104.359 378.703 112.125 384.637 120.922 383.73C129.625 382.762 135.906 374.766 135.031 366.078L134.422 362.766C124.109 327.797 98.422 289.93 83.687 272.992C60.672 246.527 48 212.562 48 177.375C48 96.133 111.047 32.297 191.531 32.047H192C230.125 32.047 266.047 46.922 293.188 73.984C320.797 101.477 336 138.227 336 177.375C336 212.563 323.328 246.527 300.328 272.992C285.578 289.93 259.891 327.797 249.578 362.766L248.953 366.109C247.906 374.859 253.891 383.699 262.625 384.793C263.406 384.887 264.156 384.949 264.906 384.949C272.703 384.949 279.266 379.828 280.266 371.828C288.609 343.578 311.125 309.301 324.469 293.992C352.531 261.711 368 220.281 368 177.375C368 129.664 349.453 84.887 315.781 51.297ZM255.975 415.992H128.025C119.18 415.992 112.012 423.172 112.025 432.02L112.063 454.414C112.072 460.684 113.932 466.813 117.406 472.035L134.502 497.719C139.727 505.574 151.723 512 161.156 512H222.875C232.293 512 244.266 505.586 249.482 497.746L266.551 472.102C269.504 467.66 271.93 459.664 271.937 454.336L271.975 432.02C271.988 423.172 264.82 415.992 255.975 415.992ZM239.91 454.375L223.742 478.883C223.266 479.32 222.057 479.969 222.875 480L162.588 480.117C162.164 480.016 161.475 479.688 161.189 479.688C161.049 479.688 161.006 479.766 161.141 479.992L144.062 454.359L144.053 447.992H239.99L239.994 453.172C239.93 453.617 239.678 454.484 239.795 454.484C239.816 454.484 239.854 454.453 239.91 454.375Z"/></svg>
